icons/svg/landuse/scrub2.svg

<?xml version="1.0" encoding="UTF-8" standalone="no"?>
<!-- Created with Inkscape (http://www.inkscape.org/) -->

<svg
   xmlns:dc="http://purl.org/dc/elements/1.1/"
   xmlns:cc="http://creativecommons.org/ns#"
   xmlns:rdf="http://www.w3.org/1999/02/22-rdf-syntax-ns#"
   xmlns:svg="http://www.w3.org/2000/svg"
   xmlns="http://www.w3.org/2000/svg"
   xmlns:sodipodi="http://sodipodi.sourceforge.net/DTD/sodipodi-0.dtd"
   xmlns:inkscape="http://www.inkscape.org/namespaces/inkscape"
   version="1.0"
   width="580"
   height="580"
   id="svg2"
   sodipodi:version="0.32"
   inkscape:version="0.91 r"
   sodipodi:docname="scrub.svg"
   inkscape:output_extension="org.inkscape.output.svg.inkscape">
  <metadata
     id="metadata10">
    <rdf:RDF>
      <cc:Work
         rdf:about="">
        <dc:format>image/svg+xml</dc:format>
        <dc:type
           rdf:resource="http://purl.org/dc/dcmitype/StillImage" />
        <cc:license
           rdf:resource="http://web.resource.org/cc/PublicDomain" />
        <dc:language>en</dc:language>
        <dc:title />
      </cc:Work>
    </rdf:RDF>
  </metadata>
  <sodipodi:namedview
     inkscape:window-height="995"
     inkscape:window-width="1280"
     inkscape:pageshadow="2"
     inkscape:pageopacity="0.0"
     guidetolerance="10.0"
     gridtolerance="10.0"
     objecttolerance="10.0"
     borderopacity="1.0"
     bordercolor="#666666"
     pagecolor="#ffffff"
     id="base"
     showgrid="false"
     inkscape:zoom="0.5"
     inkscape:cx="336.62473"
     inkscape:cy="347.23927"
     inkscape:window-x="0"
     inkscape:window-y="0"
     inkscape:current-layer="svg2"
     showguides="true"
     inkscape:guide-bbox="true"
     inkscape:window-maximized="1" />
  <defs
     id="defs4">
    <inkscape:perspective
       sodipodi:type="inkscape:persp3d"
       inkscape:vp_x="0 : 290 : 1"
       inkscape:vp_y="0 : 1000 : 0"
       inkscape:vp_z="580 : 290 : 1"
       inkscape:persp3d-origin="290 : 193.33333 : 1"
       id="perspective12" />
    <style
       type="text/css"
       id="style6">
   
    .fil0 {fill:#EF7900}
   
  </style>
    <inkscape:perspective
       id="perspective6807"
       inkscape:persp3d-origin="29.116032 : 19.410688 : 1"
       inkscape:vp_z="58.232063 : 29.116032 : 1"
       inkscape:vp_y="0 : 1000 : 0"
       inkscape:vp_x="0 : 29.116032 : 1"
       sodipodi:type="inkscape:persp3d" />
    <inkscape:perspective
       id="perspective6954"
       inkscape:persp3d-origin="290 : 193.33333 : 1"
       inkscape:vp_z="580 : 290 : 1"
       inkscape:vp_y="0 : 1000 : 0"
       inkscape:vp_x="0 : 290 : 1"
       sodipodi:type="inkscape:persp3d" />
    <inkscape:perspective
       id="perspective2541"
       inkscape:persp3d-origin="240 : 160 : 1"
       inkscape:vp_z="480 : 240 : 1"
       inkscape:vp_y="0 : 1000 : 0"
       inkscape:vp_x="0 : 240 : 1"
       sodipodi:type="inkscape:persp3d" />
    <inkscape:perspective
       id="perspective2750"
       inkscape:persp3d-origin="215 : 143.33333 : 1"
       inkscape:vp_z="430 : 215 : 1"
       inkscape:vp_y="0 : 1000 : 0"
       inkscape:vp_x="0 : 215 : 1"
       sodipodi:type="inkscape:persp3d" />
    <inkscape:perspective
       id="perspective2830"
       inkscape:persp3d-origin="0.5 : 0.33333333 : 1"
       inkscape:vp_z="1 : 0.5 : 1"
       inkscape:vp_y="0 : 1000 : 0"
       inkscape:vp_x="0 : 0.5 : 1"
       sodipodi:type="inkscape:persp3d" />
    <inkscape:perspective
       id="perspective3648"
       inkscape:persp3d-origin="0.5 : 0.33333333 : 1"
       inkscape:vp_z="1 : 0.5 : 1"
       inkscape:vp_y="0 : 1000 : 0"
       inkscape:vp_x="0 : 0.5 : 1"
       sodipodi:type="inkscape:persp3d" />
    <inkscape:perspective
       id="perspective3675"
       inkscape:persp3d-origin="0.5 : 0.33333333 : 1"
       inkscape:vp_z="1 : 0.5 : 1"
       inkscape:vp_y="0 : 1000 : 0"
       inkscape:vp_x="0 : 0.5 : 1"
       sodipodi:type="inkscape:persp3d" />
    <inkscape:perspective
       id="perspective3736"
       inkscape:persp3d-origin="0.5 : 0.33333333 : 1"
       inkscape:vp_z="1 : 0.5 : 1"
       inkscape:vp_y="0 : 1000 : 0"
       inkscape:vp_x="0 : 0.5 : 1"
       sodipodi:type="inkscape:persp3d" />
  </defs>
  <g
     id="g1327">
    <path
       d="M 66.275,1.768 C 24.94,1.768 1.704,23.139 1.704,66.804 L 1.704,516.927 C 1.704,557.771 22.598,579.156 63.896,579.156 L 515.92,579.156 C 557.227,579.156 578.149,558.84 578.149,516.927 L 578.149,66.804 C 578.149,24.203 557.227,1.768 514.627,1.768 C 514.624,1.768 66.133,1.625 66.275,1.768 z"
       style="fill:#111111;stroke:#eeeeee;stroke-width:3.40799999"
       id="path1329" />
  </g>
  <path
     inkscape:connector-curvature="0"
     sodipodi:nodetypes="cc"
     id="path3781"
     d="m 176.34055,503.13331 0.32964,-83.39783"
     style="fill:none;stroke:#ffffff;stroke-width:24;stroke-linecap:round;stroke-linejoin:round;stroke-miterlimit:4;stroke-dasharray:none;stroke-opacity:1" />
  <path
     inkscape:connector-curvature="0"
     sodipodi:nodetypes="cc"
     id="path3783"
     d="m 235.72934,442.82221 -37.87085,60.42421"
     style="fill:none;stroke:#ffffff;stroke-width:24;stroke-linecap:round;stroke-linejoin:round;stroke-miterlimit:4;stroke-dasharray:none;stroke-opacity:1" />
  <path
     inkscape:connector-curvature="0"
     sodipodi:nodetypes="cc"
     style="fill:none;stroke:#ffffff;stroke-width:24;stroke-linecap:round;stroke-linejoin:round;stroke-miterlimit:4;stroke-dasharray:none;stroke-opacity:1"
     d="m 116.5461,439.10055 38.5733,64.14587"
     id="path3787" />
  <path
     style="color:#000000;clip-rule:nonzero;display:inline;overflow:visible;visibility:visible;opacity:1;isolation:auto;mix-blend-mode:normal;color-interpolation:sRGB;color-interpolation-filters:linearRGB;solid-color:#000000;solid-opacity:1;fill:#ffffff;fill-opacity:1;fill-rule:evenodd;stroke:none;stroke-width:24;stroke-linecap:butt;stroke-linejoin:miter;stroke-miterlimit:4;stroke-dasharray:none;stroke-dashoffset:0;stroke-opacity:1;marker:none;color-rendering:auto;image-rendering:auto;shape-rendering:auto;text-rendering:auto;enable-background:accumulate"
     d="m 300.73624,374.05652 c 0,16.9678 -12.67683,38.49575 -35.67172,37.19239 28.32399,31.08531 -41.31409,52.80761 -85.32828,52.80761 -66.82645,0 -121,-40.29437 -121,-90 0,-21.74571 19.56106,-53.71094 43.89278,-38.8625 5.22261,-31.31658 21.83899,-49.72329 59.42955,-49.72329 20.40894,0 38.36557,24.00514 42.5554,20.61792 20.97165,-16.95433 74.42769,8.78731 63.08159,34.61119 14.85071,4.40937 33.04068,20.32076 33.04068,33.35668 z"
     id="path4163"
     inkscape:connector-curvature="0"
     sodipodi:nodetypes="scsscsscs" />
  <path
     inkscape:connector-curvature="0"
     sodipodi:nodetypes="cc"
     id="path3781-3"
     d="m 396.86807,282.26953 0.32964,-83.39783"
     style="fill:none;stroke:#ffffff;stroke-width:24;stroke-linecap:round;stroke-linejoin:round;stroke-miterlimit:4;stroke-dasharray:none;stroke-opacity:1" />
  <path
     inkscape:connector-curvature="0"
     sodipodi:nodetypes="cc"
     id="path3783-9"
     d="m 458.37818,224.07975 -39.99217,58.30289"
     style="fill:none;stroke:#ffffff;stroke-width:24;stroke-linecap:round;stroke-linejoin:round;stroke-miterlimit:4;stroke-dasharray:none;stroke-opacity:1" />
  <path
     inkscape:connector-curvature="0"
     sodipodi:nodetypes="cc"
     style="fill:none;stroke:#ffffff;stroke-width:24;stroke-linecap:round;stroke-linejoin:round;stroke-miterlimit:4;stroke-dasharray:none;stroke-opacity:1"
     d="m 335.65941,214.70123 39.98751,67.68141"
     id="path3787-0" />
  <path
     style="color:#000000;clip-rule:nonzero;display:inline;overflow:visible;visibility:visible;opacity:1;isolation:auto;mix-blend-mode:normal;color-interpolation:sRGB;color-interpolation-filters:linearRGB;solid-color:#000000;solid-opacity:1;fill:#ffffff;fill-opacity:1;fill-rule:evenodd;stroke:none;stroke-width:24;stroke-linecap:butt;stroke-linejoin:miter;stroke-miterlimit:4;stroke-dasharray:none;stroke-dashoffset:0;stroke-opacity:1;marker:none;color-rendering:auto;image-rendering:auto;shape-rendering:auto;text-rendering:auto;enable-background:accumulate"
     d="m 521.26376,153.19274 c 0,16.9678 -12.67683,38.49575 -35.67172,37.19239 28.32399,31.08531 -41.31409,52.80761 -85.32828,52.80761 -66.82645,0 -121,-40.29437 -121,-90 0,-21.74571 19.56106,-53.710946 43.89278,-38.86251 5.22261,-31.316576 21.83899,-49.723286 59.42955,-49.723286 20.40894,0 38.36557,24.00514 42.5554,20.61792 20.97165,-16.95433 74.42769,8.78731 63.08159,34.611196 14.85071,4.40937 33.04068,20.32076 33.04068,33.35668 z"
     id="path4163-4"
     inkscape:connector-curvature="0"
     sodipodi:nodetypes="scsscsscs" />
</svg>

<svg width="580" height="580" viewBox="0 0 580 580" fill="none" xmlns="http://www.w3.org/2000/svg">
<g clip-path="url(#clip0)">
<path d="M66.2751 1.7679C24.9401 1.7679 1.7041 23.1389 1.7041 66.8039V516.927C1.7041 557.771 22.5981 579.156 63.8961 579.156H515.92C557.227 579.156 578.149 558.84 578.149 516.927V66.8039C578.149 24.2029 557.227 1.7679 514.627 1.7679C514.624 1.7679 66.1331 1.6249 66.2751 1.7679Z" fill="#111111" stroke="#EEEEEE" stroke-width="3.408"/>
<path d="M176.341 503.133L176.67 419.735" stroke="white" stroke-width="24" stroke-linecap="round" stroke-linejoin="round"/>
<path d="M235.729 442.822L197.858 503.246" stroke="white" stroke-width="24" stroke-linecap="round" stroke-linejoin="round"/>
<path d="M116.546 439.101L155.119 503.246" stroke="white" stroke-width="24" stroke-linecap="round" stroke-linejoin="round"/>
<path fill-rule="evenodd" clip-rule="evenodd" d="M300.736 374.056C300.736 391.024 288.059 412.552 265.065 411.249C293.389 442.334 223.751 464.056 179.736 464.056C112.91 464.056 58.7363 423.762 58.7363 374.056C58.7363 352.311 78.2974 320.346 102.629 335.194C107.852 303.877 124.468 285.471 162.059 285.471C182.468 285.471 200.424 309.476 204.614 306.089C225.586 289.134 279.042 314.876 267.696 340.7C282.546 345.109 300.736 361.021 300.736 374.056Z" fill="white"/>
<path d="M396.868 282.269L397.198 198.872" stroke="white" stroke-width="24" stroke-linecap="round" stroke-linejoin="round"/>
<path d="M458.378 224.08L418.386 282.383" stroke="white" stroke-width="24" stroke-linecap="round" stroke-linejoin="round"/>
<path d="M335.659 214.701L375.647 282.383" stroke="white" stroke-width="24" stroke-linecap="round" stroke-linejoin="round"/>
<path fill-rule="evenodd" clip-rule="evenodd" d="M521.264 153.193C521.264 170.161 508.587 191.688 485.592 190.385C513.916 221.47 444.278 243.193 400.264 243.193C333.437 243.193 279.264 202.898 279.264 153.193C279.264 131.447 298.825 99.4818 323.156 114.33C328.379 83.0136 344.995 64.6069 382.586 64.6069C402.995 64.6069 420.952 88.6121 425.141 85.2249C446.113 68.2705 499.569 94.0122 488.223 119.836C503.074 124.245 521.264 140.157 521.264 153.193V153.193Z" fill="white"/>
</g>
<defs>
<clipPath id="clip0">
<path d="M0 0H580V580H0V0Z" fill="white"/>
</clipPath>
</defs>
</svg>
